src/assets/images/icon4.svg

<svg width="70" height="70" viewBox="0 0 70 70" fill="none" xmlns="http://www.w3.org/2000/svg">
<path d="M25.9001 11.003C30.6229 5.29249 39.3771 5.29249 44.0999 11.003C45.9062 13.1869 48.4376 14.6484 51.2321 15.1207C58.5389 16.3555 62.916 23.9369 60.332 30.8822C59.3438 33.5385 59.3438 36.4615 60.332 39.1177C62.916 46.0631 58.5389 53.6445 51.2321 54.8793C48.4376 55.3516 45.9062 56.8131 44.0999 58.997C39.3771 64.7075 30.6229 64.7075 25.9001 58.997C24.0938 56.8131 21.5624 55.3516 18.7679 54.8793C11.4611 53.6445 7.08398 46.0631 9.66799 39.1177C10.6562 36.4615 10.6562 33.5385 9.66799 30.8822C7.08398 23.9369 11.4611 16.3555 18.7679 15.1207C21.5624 14.6484 24.0938 13.1869 25.9001 11.003Z" fill="url(#paint0_linear_1_996)"/>
<path d="M39 44.2163V42.2163C39 41.1554 38.5786 40.138 37.8284 39.3879C37.0783 38.6377 36.0609 38.2163 35 38.2163H29C27.9391 38.2163 26.9217 38.6377 26.1716 39.3879C25.4214 40.138 25 41.1554 25 42.2163V44.2163" stroke="white" stroke-width="2" stroke-linecap="round" stroke-linejoin="round"/>
<path d="M39 26.3442C39.8578 26.5666 40.6174 27.0675 41.1597 27.7683C41.702 28.4691 41.9962 29.3301 41.9962 30.2162C41.9962 31.1023 41.702 31.9634 41.1597 32.6642C40.6174 33.365 39.8578 33.8659 39 34.0882" stroke="white" stroke-width="2" stroke-linecap="round" stroke-linejoin="round"/>
<path d="M45 44.2162V42.2162C44.9993 41.3299 44.7044 40.469 44.1614 39.7685C43.6184 39.068 42.8581 38.5678 42 38.3462" stroke="white" stroke-width="2" stroke-linecap="round" stroke-linejoin="round"/>
<path d="M32 34.2163C34.2091 34.2163 36 32.4254 36 30.2163C36 28.0072 34.2091 26.2163 32 26.2163C29.7909 26.2163 28 28.0072 28 30.2163C28 32.4254 29.7909 34.2163 32 34.2163Z" stroke="white" stroke-width="2" stroke-linecap="round" stroke-linejoin="round"/>
<defs>
<linearGradient id="paint0_linear_1_996" x1="49" y1="11.5" x2="13.5" y2="60" gradientUnits="userSpaceOnUse">
<stop stop-color="#87C752"/>
<stop offset="1" stop-color="#4AB8D2"/>
</linearGradient>
</defs>
</svg>

<svg xmlns="http://www.w3.org/2000/svg" width="70" height="70" fill="none" viewBox="0 0 70 70"><path fill="url(#a)" d="M25.9 11.003c4.723-5.71 13.477-5.71 18.2 0a11.8 11.8 0 0 0 7.132 4.118c7.307 1.234 11.684 8.816 9.1 15.761a11.8 11.8 0 0 0 0 8.236c2.584 6.945-1.793 14.526-9.1 15.761a11.8 11.8 0 0 0-7.132 4.118c-4.723 5.71-13.477 5.71-18.2 0a11.8 11.8 0 0 0-7.132-4.118c-7.307-1.234-11.684-8.816-9.1-15.761a11.8 11.8 0 0 0 0-8.236c-2.584-6.945 1.793-14.527 9.1-15.761a11.8 11.8 0 0 0 7.132-4.118"/><path stroke="#fff" stroke-linecap="round" stroke-linejoin="round" stroke-width="2" d="M39 44.216v-2a4 4 0 0 0-4-4h-6a4 4 0 0 0-4 4v2m14-17.872a4 4 0 0 1 0 7.744m6 10.128v-2a4 4 0 0 0-3-3.87m-10-4.13a4 4 0 1 0 0-8 4 4 0 0 0 0 8"/><defs><linearGradient id="a" x1="49" x2="13.5" y1="11.5" y2="60" gradientUnits="userSpaceOnUse"><stop stop-color="#87c752"/><stop offset="1" stop-color="#4ab8d2"/></linearGradient></defs></svg>
